icons/calendar-arrow-up.svg

<svg xmlns="http://www.w3.org/2000/svg" width="24" height="24" viewBox="0 0 24 24">
  <path d="M22,10 L22,20 C22,21.6568542 20.6568542,23 19,23 L5,23 C3.34314575,23 2,21.6568542 2,20 L2,10 L22,10 Z M12,12 L11.980824,12.0001802 L11.9409686,12.0017331 C11.9308872,12.0023256 11.9208131,12.00307 11.909968,12.003998 L11.909968,12.003998 L11.8515331,12.0110178 C11.834051,12.0136281 11.8166247,12.0167022 11.7992059,12.0201652 C11.7772539,12.0246398 11.7555635,12.0298336 11.734007,12.0358451 C11.7185367,12.0400977 11.7031487,12.0447287 11.6882636,12.0495467 C11.6682023,12.0561225 11.6484208,12.0633157 11.628664,12.0712255 L11.628664,12.0712255 L11.5769009,12.0936538 C11.5561086,12.1033766 11.5357061,12.1137939 11.5159379,12.1246712 L11.5159379,12.1246712 L11.4793398,12.1460674 C11.453725,12.1617187 11.4288693,12.1784901 11.4046934,12.1963346 L11.4046934,12.1963346 L11.38,12.215 L11.37,12.224 L11.2928932,12.2928932 L8.29289322,15.2928932 L8.20970461,15.3871006 C7.90467972,15.7793918 7.93240926,16.3466228 8.29289322,16.7071068 C8.68341751,17.0976311 9.31658249,17.0976311 9.70710678,16.7071068 L9.70710678,16.7071068 L11,15.415 L11,19 L11.0067277,19.1166211 C11.0644928,19.6139598 11.4871642,20 12,20 C12.5522847,20 13,19.5522847 13,19 L13,19 L13,15.415 L14.2928932,16.7071068 L14.3871006,16.7902954 C14.7793918,17.0953203 15.3466228,17.0675907 15.7071068,16.7071068 C16.0976311,16.3165825 16.0976311,15.6834175 15.7071068,15.2928932 L15.7071068,15.2928932 L12.7071068,12.2928932 L12.625449,12.2196888 C12.6225624,12.2173721 12.6196628,12.2150711 12.6128994,12.2097046 C12.6070733,12.2051745 12.6012086,12.2007179 12.5951593,12.1963135 C12.5711307,12.1784901 12.546275,12.1617187 12.5207088,12.1459955 C12.5086131,12.1386069 12.4963944,12.1314988 12.484277,12.1248758 C12.4642939,12.1137939 12.4438914,12.1033766 12.4232215,12.0936734 L12.4232215,12.0936734 L12.3710585,12.071104 C12.3515792,12.0633157 12.3317977,12.0561225 12.3121425,12.0497381 C12.2968513,12.0447287 12.2814633,12.0400977 12.2658396,12.035721 C12.2444365,12.0298336 12.2227461,12.0246398 12.2007258,12.0202401 C12.1833753,12.0167022 12.165949,12.0136281 12.1489612,12.0110193 L12.1489612,12.0110193 L12.081,12.003 L12.03,12.001 L12.019,12.001 L12,12 L12,12 Z M7,3 L7,4 L7.00672773,4.11662113 C7.06449284,4.61395981 7.48716416,5 8,5 C8.51283584,5 8.93550716,4.61395981 8.99327227,4.11662113 L9,4 L9,3 L15,3 L15,4 L15.0067277,4.11662113 C15.0644928,4.61395981 15.4871642,5 16,5 C16.5128358,5 16.9355072,4.61395981 16.9932723,4.11662113 L17,4 L17,3 L19,3 C20.6568542,3 22,4.34314575 22,6 L22,8 L2,8 L2,6 C2,4.34314575 3.34314575,3 5,3 L7,3 Z M16,1 C16.5128358,1 16.9355072,1.38604019 16.9932723,1.88337887 L17,2 L17,3 L15,3 L15,2 C15,1.44771525 15.4477153,1 16,1 Z M8,1 C8.51283584,1 8.93550716,1.38604019 8.99327227,1.88337887 L9,2 L9,3 L7,3 L7,2 C7,1.44771525 7.44771525,1 8,1 Z"/>
</svg>

<svg xmlns="http://www.w3.org/2000/svg" viewBox="0 0 24 24">
  <path d="M22 10v10a3 3 0 0 1-3 3H5a3 3 0 0 1-3-3V10h20zm-10 2h-.09l-.06.01a1.1 1.1 0 0 0-.22.06l-.05.02-.06.03-.04.03-.08.05-.02.02h-.01l-.08.07-3 3-.08.1a1 1 0 0 0 1.5 1.32L11 15.4v3.71a1 1 0 0 0 2-.12V15.4l1.3 1.3.09.08a1 1 0 0 0 1.32-1.5l-3-3-.08-.07a3 3 0 0 0-.15-.1 1.02 1.02 0 0 0-.06-.03l-.05-.02a.95.95 0 0 0-.22-.06H12zM7 3v1.12a1 1 0 0 0 2 0V3h6v1.12a1 1 0 0 0 2 0V3h2a3 3 0 0 1 3 3v2H2V6a3 3 0 0 1 3-3h2zm9-2a1 1 0 0 1 1 .88V3h-2V2a1 1 0 0 1 1-1zM8 1a1 1 0 0 1 1 .88V3H7V2a1 1 0 0 1 1-1z"/>
</svg>
